X: 221
T: The Blacksmith.
C: W. A. Mozart
%R: march
B: "The Everyday Song Book", 1927
F: http://www.library.pitt.edu/happybirthday/pdf/The_Everyday_Song_Book.pdf
Z: 2015 John Chambers <jc:trillian.mit.edu>
M: 4/4
L: 1/8
K: C clef=bass middle=D
% - - - - - - - - - - - - - - - - - - - - - - - - - - - - -
G> G | E2 G> G E2 G> G | F2 D2 z2 F> F |
w: 1.~Oh, the black-smith's a fine, stur-dy fel-low,    Hard his
w: 2.~Blow the fire, stir the coals, heap-ing more on,  Till the
w: 3.~Let the blows, strong and sure, quic-ly fall-ing, Haste the
%
D2 F> F D2 F> F | E2 C2 z2 C> E | G2 E> G c2
w: hand but his heart's true and mel-low; See him stand there, his huge
w: iron's all a-glow, let it roar on!     While the smith high his ham-
w: work, for the iron fast is cool-ing;   O! the smith, he's a fine
%
G> c | e2 c2 z2 G> c | G2 E> G F2 D> F | E4 z2 C> E |
w: bel-lows blow-ing, With his strong brawn-y arms free and bare, See the
w: mer is swing-ing,  Fier-y sparks fall in show'rs all a-round,  And the
w: stur-dy fel-low,   Brave-ly work-ing from morn-ing till night, Hard his
%
G2 E> G c2 G> c | e2 c2 z2 G> c | G2 E> G F2 D> G | C4 z2 |]
w: fire in the fur-nace a-glow-ing         Bright its spark-le and flash, loud its blare.
w: sledge on the an-vil a-ring-ing,        Fills the air with its loud, clang-ing sound.
w: hand, but his heart's true and mel-low, Like his an-vil, he stands for the right.
% - - - - - - - - - - - - - - - - - - - - - - - - - - - - -
